X:1
T:Norfolk Park, 11.11.11.11
T:Norfolk Park, 11.11.11.11
T:Henry Coward, 1889
T:Public Domain Courtesy of the Cyber Hymnal™
C:Henry Coward, 1889
Z:Public Domain
Z:Courtesy of the Cyber Hymnal™
%%score ( 1 2 ) ( 3 4 )
L:1/8
Q:1/4=110
M:4/4
K:Ab
V:1 treble 
V:2 treble 
V:3 bass 
V:4 bass 
V:1
 [CA]2 [EG][DF] [CE]2 [EA][Ac] | e3 z d [Ac]4 | [FB]2 [DF]2 [Fd]2 [Ec][FB] | A4 z2 x6 | %4
 [CA]2 GF E2 Ac | e3 z d [Ac]4 | [GB]2 e=d [Ac]2 [Ad]2 | [Ge]8 | [GB]2 Bc [Gd]2 [EG]2 | %9
 A3 B [Ec]4 | [DF]2 GA [Fd]2 [Ec][FB] | A4 z2 x6 | [CA]2 GF E2 Ac x2 | e3 z d c4 | %14
 [FB]2 cd [DF]2 [DG]2 | [CA]8 |] %16
V:2
 x8 | B2 G2 x5 | x8 | E6 (G4 D2) | x2 D2 E2 F2 | G2 B2 x5 | x2 G2 x4 | x8 | x2 G2 x4 | E4 x4 | %10
 x2 E2 x4 | E6 (G4 D2) | x2 D4 E2 F2 | G2 (B2 A2) _G2 x | x2 F2 x4 | x8 |] %16
V:3
 [A,,A,]2 [A,,A,]2 [A,,A,]2 CE | E4 [A,E]4 x | [D,D]2 A,2 [B,,A,]2 [C,A,][D,D] | C2 DC B,4 x4 | %4
 [A,,A,]2 [D,A,]2 [C,A,]2 [F,A,]2 | [E,B,]2 [G,E]2 [A,E]4 x | [B,E]2 [B,E]2 [B,,F]2 [B,,B,]2 | %7
 [E,B,]8 | [E,D]2 DC [E,B,]2 B,2 | [C,A,]3 [B,,G,] [A,,A,]4 | %10
 [D,A,]2 [D,B,][C,A,] [B,,A,]2 [C,A,][D,D] | (C2 DC) B,4 x4 | [A,,A,]2 [D,A,]2 [C,A,]2 [F,A,]2 x2 | %13
 [E,B,]2 [G,E]2 [A,E]4 x | [D,D]2 CB, [E,B,]2 [E,B,]2 | [A,,A,]8 |] %16
V:4
 x6 A,2 | G,2 E,2 x5 | x2 (D,C,) x4 | E,8 x4 | x8 | x9 | x8 | x8 | x2 E,2 x (E,D,) x | x8 | x8 | %11
 E,8 x4 | x10 | x9 | x2 D,2 x4 | x8 |] %16

